public/img/events/azura.svg

<svg width="200" height="200" viewBox="0 0 200 200" fill="none" xmlns="http://www.w3.org/2000/svg">
<g clip-path="url(#clip0_501_28622)">
<path fill-rule="evenodd" clip-rule="evenodd" d="M99.5733 58.9455C76.5026 58.9455 57.8002 77.5787 57.8002 100.564C57.8002 123.549 76.5026 142.182 99.5733 142.182C122.644 142.182 141.346 123.549 141.346 100.564C141.346 77.5787 122.644 58.9455 99.5733 58.9455ZM52.7258 100.564C52.7258 74.7866 73.7001 53.8899 99.5733 53.8899C125.446 53.8899 146.421 74.7866 146.421 100.564C146.421 126.341 125.446 147.238 99.5733 147.238C73.7001 147.238 52.7258 126.341 52.7258 100.564Z" fill="black"/>
<path d="M60.3048 46.1115C55.7596 44.4612 50.7794 42.7314 48.3292 38.25C47.0933 35.9894 46.6076 33.3316 46.082 30.8363C45.4658 27.9221 44.9801 24.979 44.422 22.054C44.1972 20.8804 42.925 20.0895 41.8014 20.0642C40 20.0281 38.4414 20.6384 37.702 22.3393C37.1293 23.661 36.7415 25.0729 36.1688 26.4054C34.922 29.3088 33.5338 32.158 32.4863 35.1408C30.4493 40.9511 30.1013 47.8123 34.2442 52.8354C36.0275 54.9985 38.4849 56.4177 40.9206 57.7249C43.5847 59.1549 46.1001 60.6824 48.3401 62.73C53.2296 67.197 56.5425 72.9929 57.9814 79.4351C58.507 81.7896 61.7764 81.9774 62.9507 80.0815C67.7968 72.2526 74.6435 65.98 82.8242 61.7261C84.7126 60.7438 84.4625 58.0896 82.8242 57.0496C75.7563 52.561 68.1737 48.9895 60.3048 46.1115C57.0137 44.909 55.5965 50.1415 58.8586 51.3332C66.2889 54.0524 73.4039 57.4866 80.0768 61.7333C80.0768 60.1733 80.0768 58.6169 80.0768 57.0569C71.0987 61.7261 63.5705 68.775 58.2533 77.3551C59.9097 77.5718 61.5661 77.7848 63.2226 78.0015C61.8996 72.0612 59.0833 66.5794 55.1289 61.95C53.139 59.6208 50.8338 57.5877 48.3329 55.8218C46.2777 54.3738 44.0233 53.3121 41.8558 52.0554C39.8478 50.889 38.0935 49.5132 37.1837 47.3104C36.1326 44.7609 36.2413 41.9586 36.8938 39.3297C38.2421 33.9094 41.2432 29.0849 42.9395 23.7837C42.5227 24.3218 42.1059 24.8635 41.689 25.4015C41.7253 25.4304 41.7579 25.4557 41.7942 25.4846C40.9206 24.8201 40.0471 24.1593 39.1736 23.4948C40.3226 29.5074 40.7539 36.5889 44.1537 41.8647C47.5173 47.0792 53.255 49.3001 58.855 51.3332C62.1533 52.5321 63.5741 47.2959 60.3048 46.1115Z" fill="black"/>
<path d="M153.72 59.0465C155.177 54.4928 156.671 49.365 161.046 46.7541C163.275 45.4216 165.877 44.8186 168.374 44.1866C171.274 43.4536 174.203 42.8505 177.117 42.1716C178.255 41.908 179.136 40.7127 179.114 39.5607C179.078 37.7949 178.505 36.1915 176.769 35.491C175.399 34.9385 173.902 34.6135 172.51 34.0934C169.581 32.9957 166.714 31.7354 163.717 30.829C157.802 29.0378 150.933 28.9151 146.015 33.1979C143.898 35.0396 142.571 37.5529 141.361 40.0302C140.041 42.7277 138.62 45.335 136.667 47.6389C132.39 52.6836 126.739 56.2731 120.338 57.9704C118.098 58.5626 117.649 61.7801 119.689 62.9212C127.736 67.4243 134.347 73.9389 138.95 81.9087C139.969 83.6709 142.622 83.6601 143.644 81.9087C147.856 74.6864 151.158 66.991 153.72 59.0465C154.793 55.7206 149.545 54.2942 148.479 57.6056C146.054 65.1204 142.934 72.3391 138.947 79.1642C140.512 79.1642 142.075 79.1642 143.64 79.1642C138.591 70.4252 131.252 63.1704 122.426 58.234C122.208 59.8843 121.995 61.5346 121.777 63.1849C127.671 61.6248 133.093 58.642 137.569 54.5181C139.813 52.4525 141.799 50.0728 143.459 47.5161C144.826 45.4108 145.797 43.1213 146.971 40.9149C148.081 38.8313 149.382 37.0004 151.589 35.9785C154.05 34.841 156.859 34.794 159.48 35.3285C164.971 36.4479 169.933 39.2393 175.319 40.7091C174.779 40.2938 174.235 39.8785 173.695 39.4632C173.688 39.4921 173.681 39.5246 173.674 39.5535C174.341 38.6832 175.004 37.8129 175.671 36.9426C169.697 38.3329 162.593 39.0516 157.439 42.6302C152.329 46.1764 150.292 51.9253 148.476 57.6056C147.414 60.9387 152.662 62.3615 153.72 59.0465Z" fill="black"/>
<path d="M33.157 91.908C28.4813 94.0783 23.5048 96.3822 18.3325 94.5044C15.9621 93.6449 13.7765 92.0957 11.6851 90.7163C9.40162 89.2104 7.17251 87.6251 4.90716 86.0904C3.90316 85.4115 2.44246 85.7221 1.61243 86.5129C0.680921 87.4049 -0.156349 88.6904 0.0248791 90.0338C0.162612 91.0521 0.873024 92.0524 1.2971 92.9877C2.07638 94.7066 2.71792 96.4833 3.40297 98.2383C4.89266 102.063 6.47659 105.854 9.07903 109.075C11.8699 112.528 16.1216 115.027 20.645 115.081C23.5483 115.113 26.3356 114.163 29.083 113.362C31.8413 112.557 34.6213 112.094 37.4992 112.051C43.7842 111.961 49.8735 113.723 55.1689 117.081C57.2531 118.403 59.6851 116.225 59.1632 114.023C57.0465 105.092 57.4343 95.8586 60.189 87.1088C60.8377 85.0396 58.779 83.3532 56.8435 83.7757C48.6483 85.5776 40.7649 88.4016 33.157 91.908C29.9855 93.3705 32.7438 98.0397 35.9008 96.5844C43.081 93.273 50.5621 90.6982 58.2897 88.9974C57.1733 87.8851 56.0606 86.7765 54.9442 85.6643C51.9068 95.3277 51.5879 105.609 53.9185 115.456C55.2487 114.438 56.5789 113.416 57.9127 112.398C52.3092 108.844 45.8103 106.869 39.1738 106.641C35.8283 106.526 32.4212 106.887 29.1772 107.703C26.2232 108.443 23.1278 109.942 20.018 109.631C15.3858 109.173 12.4209 105.053 10.5434 101.232C8.47736 97.0214 7.216 92.4677 5.04489 88.3004C5.13551 88.9974 5.22612 89.6907 5.32036 90.3877C5.36748 90.3696 5.4146 90.3552 5.46172 90.3371C4.36348 90.478 3.26524 90.6188 2.167 90.7596C7.10002 94.0999 12.1889 98.5164 18.0498 100.084C24.3602 101.77 30.2682 99.1953 35.9044 96.5808C39.0686 95.1147 36.3104 90.4455 33.157 91.908Z" fill="black"/>
<path d="M141.249 153.283C145.823 154.717 150.984 156.186 153.619 160.531C154.964 162.748 155.584 165.337 156.226 167.825C156.972 170.71 157.588 173.628 158.281 176.524C158.549 177.651 159.745 178.539 160.901 178.514C162.67 178.471 164.287 177.904 164.986 176.171C165.537 174.806 165.856 173.311 166.374 171.92C167.465 168.999 168.719 166.135 169.622 163.149C171.398 157.248 171.503 150.409 167.19 145.516C165.334 143.414 162.808 142.099 160.318 140.9C157.606 139.597 154.986 138.188 152.663 136.253C147.581 132.021 143.953 126.391 142.231 120.024C141.629 117.807 138.404 117.334 137.262 119.378C132.771 127.413 126.261 134.025 118.276 138.64C116.515 139.658 116.511 142.302 118.276 143.316C125.533 147.494 133.268 150.759 141.249 153.283C144.591 154.341 146.022 149.112 142.695 148.061C135.145 145.674 127.885 142.594 121.02 138.647C121.02 140.207 121.02 141.764 121.02 143.324C129.773 138.264 137.03 130.926 141.956 122.115C140.299 121.899 138.643 121.686 136.986 121.469C138.574 127.333 141.582 132.728 145.736 137.174C147.817 139.402 150.212 141.374 152.782 143.017C154.899 144.371 157.201 145.331 159.419 146.491C161.517 147.588 163.359 148.874 164.392 151.069C165.544 153.518 165.606 156.316 165.08 158.927C163.975 164.402 161.195 169.356 159.738 174.726C160.155 174.188 160.571 173.646 160.988 173.108C160.959 173.105 160.927 173.097 160.898 173.094C161.771 173.758 162.645 174.419 163.518 175.084C162.101 169.136 161.351 162.065 157.748 156.941C154.174 151.86 148.396 149.849 142.691 148.061C139.35 147.011 137.918 152.239 141.249 153.283Z" fill="black"/>
<path d="M90.5553 166.879C92.8388 171.501 95.26 176.373 93.5238 181.58C92.7264 183.967 91.2186 186.177 89.8775 188.289C88.4132 190.597 86.8728 192.85 85.3795 195.14C84.727 196.14 84.9807 197.603 85.8035 198.422C86.735 199.347 87.9855 200.141 89.3556 199.979C90.3741 199.856 91.3781 199.108 92.2987 198.671C94.0784 197.826 95.9124 197.111 97.7319 196.36C101.534 194.79 105.293 193.136 108.453 190.445C111.871 187.535 114.325 183.064 114.09 178.503C113.952 175.824 113.086 173.31 112.274 170.779C111.418 168.1 110.846 165.38 110.715 162.567C110.422 156.197 112.027 149.961 115.344 144.519C116.594 142.464 114.528 139.958 112.274 140.539C103.357 142.84 94.0893 142.681 85.2453 140.128C83.2011 139.535 81.4214 141.493 81.8999 143.461C83.8825 151.571 86.8728 159.382 90.5553 166.879C92.0921 170.01 96.7823 167.269 95.2491 164.145C91.7695 157.06 89.0149 149.683 87.141 142.013C86.0246 143.125 84.9119 144.233 83.7955 145.346C93.5528 148.162 103.883 148.292 113.716 145.757C112.694 144.432 111.668 143.103 110.646 141.778C107.203 147.429 105.329 153.944 105.242 160.559C105.199 163.878 105.615 167.265 106.5 170.468C107.301 173.383 108.765 176.311 108.656 179.392C108.49 184.101 104.3 187.257 100.479 189.221C96.3003 191.37 91.7551 192.724 87.6231 194.977C88.3226 194.887 89.0185 194.797 89.7181 194.703C89.6963 194.667 89.6746 194.627 89.6492 194.591C89.7905 195.685 89.9319 196.779 90.0732 197.873C93.3136 192.897 97.6595 187.719 99.102 181.858C100.661 175.528 98.0002 169.714 95.2491 164.145C93.7051 161.018 89.0149 163.759 90.5553 166.879Z" fill="black"/>
<path d="M46.7024 142.059C45.2381 146.613 43.7339 151.734 39.359 154.341C37.1299 155.67 34.5202 156.269 32.0229 156.898C29.1233 157.627 26.191 158.227 23.2805 158.898C22.1424 159.162 21.2616 160.361 21.2834 161.509C21.316 163.275 21.8923 164.878 23.6284 165.579C24.9985 166.135 26.4955 166.46 27.8873 166.984C30.8123 168.085 33.6793 169.353 36.6769 170.263C42.5885 172.061 49.4571 172.194 54.3828 167.915C56.4996 166.077 57.8298 163.564 59.0477 161.09C60.3706 158.393 61.7987 155.793 63.7523 153.489C68.0366 148.451 73.6909 144.869 80.0991 143.186C82.3427 142.598 82.7813 139.38 80.7479 138.235C72.705 133.718 66.1083 127.196 61.516 119.215C60.4975 117.446 57.8443 117.471 56.8222 119.215C52.5887 126.43 49.2758 134.122 46.7024 142.059C45.6259 145.385 50.8706 146.808 51.9435 143.5C54.3792 135.989 57.5108 128.774 61.5087 121.956C59.9429 121.956 58.3807 121.956 56.8149 121.956C61.8494 130.706 69.1783 137.964 77.9969 142.919C78.2143 141.269 78.4282 139.618 78.6456 137.968C72.7485 139.517 67.3225 142.496 62.8389 146.613C60.5917 148.675 58.6054 151.055 56.9418 153.604C55.5717 155.706 54.5967 157.995 53.4187 160.198C52.3096 162.278 51.0011 164.109 48.7938 165.127C46.3291 166.261 43.52 166.301 40.8995 165.763C35.4083 164.636 30.4535 161.838 25.071 160.357C25.6111 160.772 26.1548 161.188 26.6948 161.603C26.7021 161.57 26.7093 161.542 26.7166 161.509C26.0497 162.379 25.3864 163.25 24.7194 164.12C30.6963 162.741 37.8005 162.033 42.9582 158.461C48.0725 154.919 50.1167 149.173 51.9399 143.5C53.0128 140.174 47.7644 138.748 46.7024 142.059Z" fill="black"/>
<path d="M109.088 33.1762C106.808 28.7273 104.256 23.9209 105.775 18.8147C106.493 16.3988 107.928 14.178 109.229 12.0366C110.708 9.60989 112.281 7.24458 113.792 4.83956C114.423 3.83927 114.213 2.37315 113.368 1.55703C112.419 0.643406 111.179 -0.143825 109.805 0.0222883C108.783 0.145067 107.794 0.907019 106.877 1.35841C105.039 2.26481 103.143 3.04482 101.262 3.8501C97.5616 5.4354 93.8935 7.13986 90.8453 9.81572C87.4745 12.7733 85.0605 17.2691 85.3613 21.83C85.5389 24.5095 86.4342 27.0012 87.2824 29.5254C88.1776 32.1868 88.8047 34.906 88.975 37.7118C89.3628 44.0711 87.8732 50.34 84.64 55.8362C83.4403 57.8765 85.423 60.4404 87.7101 59.8157C96.5902 57.3818 105.858 57.3782 114.742 59.8012C116.765 60.3537 118.606 58.4615 118.087 56.4681C115.982 48.39 112.879 40.6152 109.088 33.1762C107.504 30.067 102.81 32.8043 104.394 35.9099C107.979 42.9444 110.856 50.2714 112.843 57.9126C113.959 56.8004 115.072 55.6917 116.188 54.5795C106.391 51.9073 96.061 51.9109 86.2675 54.594C87.2896 55.9193 88.3153 57.2481 89.3375 58.5734C92.6938 52.875 94.4916 46.3353 94.4771 39.7196C94.4699 36.401 94.0132 33.0173 93.0817 29.8287C92.2335 26.9217 90.7402 24.022 90.7801 20.9381C90.838 16.2291 94.9882 12.9863 98.7722 10.9677C102.919 8.75404 107.442 7.33486 111.542 5.02012C110.842 5.11039 110.146 5.20067 109.447 5.29456C109.472 5.32706 109.501 5.35595 109.526 5.38845C109.385 4.29428 109.244 3.2001 109.102 2.10592C105.902 7.18681 101.487 12.553 100.24 18.5439C98.9353 24.8128 101.599 30.457 104.398 35.9099C105.985 39.0155 110.675 36.2782 109.088 33.1762Z" fill="black"/>
<path d="M166.635 109.415C171.093 107.024 175.892 104.352 181.1 105.807C186.124 107.212 190.734 110.805 195.167 113.449C196.168 114.044 197.65 113.893 198.462 113.026C199.365 112.058 200.144 110.838 199.977 109.458C199.854 108.436 199.067 107.465 198.596 106.562C197.647 104.753 196.824 102.879 195.976 101.023C194.312 97.379 192.525 93.7389 189.781 90.7633C186.737 87.4628 182.21 85.1372 177.628 85.5127C174.935 85.733 172.463 86.6719 169.944 87.5711C167.298 88.5172 164.572 89.2142 161.767 89.4453C155.399 89.9653 149.063 88.6436 143.481 85.538C141.462 84.415 138.795 86.2819 139.487 88.5967C142.115 97.3898 142.343 106.62 140.099 115.521C139.599 117.5 141.411 119.425 143.445 118.854C151.506 116.59 159.252 113.347 166.635 109.415C169.723 107.772 166.979 103.092 163.891 104.738C156.906 108.458 149.625 111.488 141.995 113.633C143.111 114.745 144.224 115.854 145.34 116.966C147.816 107.151 147.628 96.8626 144.728 87.1594C143.398 88.1778 142.068 89.1997 140.734 90.2181C146.522 93.4392 153.115 95.1256 159.752 94.9703C163.086 94.8945 166.468 94.3817 169.65 93.3886C172.536 92.4895 175.439 90.9114 178.52 90.8933C183.261 90.8645 186.599 94.8403 188.723 98.5959C191.032 102.68 192.554 107.158 194.957 111.188C194.866 110.491 194.776 109.798 194.682 109.101C194.66 109.133 194.638 109.166 194.613 109.198C195.711 109.057 196.809 108.917 197.907 108.776C192.764 105.706 187.288 101.431 181.285 100.293C174.931 99.0907 169.335 101.821 163.884 104.742C160.81 106.389 163.55 111.065 166.635 109.415Z" fill="black"/>
</g>
<defs>
<clipPath id="clip0_501_28622">
<rect width="200" height="200" fill="white"/>
</clipPath>
</defs>
</svg>

<svg xmlns="http://www.w3.org/2000/svg" width="200" height="200" fill="none"><g fill="#000" clip-path="url(#a)"><path fill-rule="evenodd" d="M99.573 58.946c-23.07 0-41.773 18.633-41.773 41.618s18.703 41.618 41.773 41.618 41.773-18.633 41.773-41.618-18.702-41.618-41.773-41.618m-46.847 41.618c0-25.777 20.974-46.674 46.847-46.674s46.848 20.897 46.848 46.674-20.975 46.674-46.848 46.674-46.847-20.897-46.847-46.674" clip-rule="evenodd"/><path d="M60.305 46.112c-4.545-1.65-9.526-3.38-11.976-7.862-1.236-2.26-1.721-4.918-2.247-7.414-.616-2.914-1.102-5.857-1.66-8.782-.225-1.174-1.497-1.964-2.62-1.99-1.802-.036-3.36.574-4.1 2.275-.573 1.322-.96 2.734-1.533 4.066-1.247 2.904-2.635 5.753-3.683 8.736-2.037 5.81-2.385 12.671 1.758 17.694 1.784 2.163 4.24 3.583 6.677 4.89 2.664 1.43 5.18 2.957 7.42 5.005 4.889 4.467 8.201 10.263 9.64 16.705.526 2.355 3.795 2.542 4.97.647 4.846-7.83 11.693-14.102 19.873-18.356 1.889-.982 1.639-3.636 0-4.676-7.068-4.489-14.65-8.06-22.52-10.938-3.29-1.203-4.708 4.03-1.445 5.221 7.43 2.72 14.545 6.154 21.218 10.4v-4.676c-8.978 4.67-16.506 11.718-21.824 20.298q2.485.324 4.97.646c-1.323-5.94-4.14-11.422-8.094-16.051-1.99-2.33-4.295-4.362-6.796-6.128-2.055-1.448-4.31-2.51-6.477-3.767-2.008-1.166-3.763-2.542-4.672-4.745-1.051-2.55-.943-5.351-.29-7.98 1.348-5.42 4.35-10.245 6.046-15.546-.417.538-.834 1.08-1.251 1.617l.105.084q-1.31-.996-2.62-1.99c1.149 6.012 1.58 13.094 4.98 18.37 3.363 5.214 9.101 7.435 14.701 9.468 3.298 1.2 4.72-4.037 1.45-5.221M153.72 59.047c1.457-4.554 2.951-9.682 7.326-12.293 2.229-1.332 4.831-1.935 7.328-2.567 2.9-.733 5.829-1.337 8.743-2.015 1.138-.264 2.019-1.46 1.997-2.611-.036-1.766-.609-3.37-2.345-4.07-1.37-.553-2.867-.877-4.259-1.398-2.929-1.097-5.796-2.358-8.793-3.264-5.915-1.791-12.784-1.914-17.702 2.369-2.117 1.842-3.444 4.355-4.654 6.832-1.32 2.698-2.741 5.305-4.694 7.609a32.14 32.14 0 0 1-16.329 10.331c-2.24.593-2.689 3.81-.649 4.951A50.8 50.8 0 0 1 138.95 81.91c1.019 1.762 3.672 1.751 4.694 0 4.212-7.223 7.514-14.918 10.076-22.863 1.073-3.325-4.175-4.752-5.241-1.44-2.425 7.514-5.545 14.733-9.532 21.558h4.693a56.24 56.24 0 0 0-21.214-20.93c-.218 1.65-.431 3.3-.649 4.95a37.5 37.5 0 0 0 15.792-8.666 36.7 36.7 0 0 0 5.89-7.002c1.367-2.105 2.338-4.395 3.512-6.601 1.11-2.084 2.411-3.915 4.618-4.937 2.461-1.137 5.27-1.184 7.891-.65 5.491 1.12 10.453 3.911 15.839 5.381-.54-.415-1.084-.83-1.624-1.246l-.021.09c.667-.87 1.33-1.74 1.997-2.61-5.974 1.39-13.078 2.109-18.232 5.687-5.11 3.546-7.147 9.295-8.963 14.976-1.062 3.333 4.186 4.755 5.244 1.44M33.157 91.908c-4.676 2.17-9.652 4.474-14.824 2.596-2.37-.86-4.556-2.408-6.648-3.788-2.283-1.506-4.512-3.09-6.778-4.626-1.004-.678-2.465-.368-3.295.423-.931.892-1.768 2.177-1.587 3.52.138 1.02.848 2.02 1.272 2.955.78 1.719 1.42 3.495 2.106 5.25 1.49 3.825 3.074 7.616 5.676 10.837 2.79 3.453 7.043 5.952 11.566 6.006 2.903.032 5.69-.918 8.438-1.719 2.758-.805 5.538-1.268 8.416-1.311 6.285-.09 12.374 1.672 17.67 5.03 2.084 1.322 4.516-.856 3.994-3.058-2.116-8.931-1.729-18.164 1.026-26.914.649-2.07-1.41-3.756-3.346-3.333-8.195 1.802-16.078 4.626-23.686 8.132-3.171 1.463-.413 6.132 2.744 4.676 7.18-3.311 14.661-5.886 22.389-7.587l-3.346-3.333c-3.037 9.664-3.356 19.945-1.026 29.792 1.33-1.018 2.66-2.04 3.995-3.058-5.604-3.554-12.103-5.529-18.74-5.757a36.2 36.2 0 0 0-9.996 1.062c-2.954.74-6.05 2.239-9.159 1.928-4.632-.458-7.597-4.578-9.475-8.399-2.066-4.21-3.327-8.764-5.498-12.932.09.697.181 1.39.275 2.088q.071-.026.142-.05-1.648.21-3.295.422c4.933 3.34 10.022 7.756 15.883 9.324 6.31 1.686 12.218-.889 17.854-3.503 3.165-1.466.406-6.136-2.747-4.673M141.249 153.283c4.574 1.434 9.735 2.903 12.37 7.248 1.345 2.217 1.965 4.806 2.607 7.294.746 2.885 1.362 5.803 2.055 8.699.268 1.127 1.464 2.015 2.62 1.99 1.769-.043 3.386-.61 4.085-2.343.551-1.365.87-2.86 1.388-4.251 1.091-2.921 2.345-5.785 3.248-8.771 1.776-5.901 1.881-12.74-2.432-17.633-1.856-2.102-4.382-3.417-6.872-4.616-2.712-1.303-5.332-2.712-7.655-4.647-5.082-4.232-8.71-9.862-10.432-16.229-.602-2.217-3.827-2.69-4.969-.646a50.8 50.8 0 0 1-18.986 19.262c-1.761 1.018-1.765 3.662 0 4.676 7.257 4.178 14.992 7.443 22.973 9.967 3.342 1.058 4.773-4.171 1.446-5.222-7.55-2.387-14.81-5.467-21.675-9.414v4.677c8.753-5.06 16.01-12.398 20.936-21.209q-2.485-.322-4.97-.646a37.3 37.3 0 0 0 8.75 15.705 36.8 36.8 0 0 0 7.046 5.843c2.117 1.354 4.419 2.314 6.637 3.474 2.098 1.097 3.94 2.383 4.973 4.578 1.152 2.449 1.214 5.247.688 7.858-1.105 5.475-3.885 10.429-5.342 15.799q.625-.809 1.25-1.618c-.029-.003-.061-.011-.09-.014q1.31.994 2.62 1.99c-1.417-5.948-2.167-13.019-5.77-18.143-3.574-5.081-9.352-7.092-15.057-8.88-3.341-1.05-4.773 4.178-1.442 5.222M90.555 166.879c2.284 4.622 4.705 9.494 2.969 14.701-.798 2.387-2.305 4.597-3.647 6.709-1.464 2.308-3.004 4.561-4.498 6.851-.652 1-.398 2.463.424 3.282.932.925 2.183 1.719 3.553 1.557 1.018-.123 2.022-.871 2.943-1.308 1.78-.845 3.613-1.56 5.433-2.311 3.802-1.57 7.561-3.224 10.721-5.915 3.418-2.91 5.872-7.381 5.637-11.942-.138-2.679-1.004-5.193-1.816-7.724-.856-2.679-1.428-5.399-1.559-8.212a31.75 31.75 0 0 1 4.629-18.048c1.25-2.055-.816-4.561-3.07-3.98-8.917 2.301-18.185 2.142-27.029-.411-2.044-.593-3.824 1.365-3.345 3.333 1.982 8.11 4.973 15.921 8.655 23.418 1.537 3.131 6.227.39 4.694-2.734-3.48-7.085-6.234-14.462-8.108-22.132l-3.346 3.333a56.8 56.8 0 0 0 29.921.411l-3.07-3.979a37.1 37.1 0 0 0-5.404 18.781 35.7 35.7 0 0 0 1.258 9.909c.801 2.915 2.265 5.843 2.156 8.924-.166 4.709-4.356 7.865-8.177 9.829-4.179 2.149-8.724 3.503-12.856 5.756.7-.09 1.395-.18 2.095-.274q-.032-.056-.069-.112l.424 3.282c3.24-4.976 7.587-10.154 9.029-16.015 1.559-6.33-1.102-12.144-3.853-17.713-1.544-3.127-6.234-.386-4.694 2.734"/><path d="M46.702 142.059c-1.464 4.554-2.968 9.675-7.343 12.282-2.23 1.329-4.839 1.928-7.336 2.557-2.9.729-5.832 1.329-8.743 2-1.138.264-2.018 1.463-1.997 2.611.033 1.766.61 3.369 2.345 4.07 1.37.556 2.867.881 4.26 1.405 2.924 1.101 5.791 2.369 8.789 3.279 5.912 1.798 12.78 1.931 17.706-2.348 2.117-1.838 3.447-4.351 4.665-6.825 1.323-2.697 2.75-5.297 4.704-7.601 4.285-5.038 9.939-8.62 16.347-10.303 2.244-.588 2.682-3.806.649-4.951a50.8 50.8 0 0 1-19.232-19.02c-1.018-1.769-3.672-1.744-4.694 0-4.233 7.215-7.546 14.907-10.12 22.844-1.076 3.326 4.169 4.749 5.242 1.441 2.435-7.511 5.567-14.726 9.565-21.544h-4.694a56.25 56.25 0 0 0 21.182 20.963q.324-2.475.649-4.951a37.46 37.46 0 0 0-15.807 8.645 36.8 36.8 0 0 0-5.897 6.991c-1.37 2.102-2.345 4.391-3.523 6.594-1.11 2.08-2.418 3.911-4.625 4.929-2.465 1.134-5.274 1.174-7.894.636-5.492-1.127-10.446-3.925-15.829-5.406l1.624 1.246.022-.094c-.667.87-1.33 1.741-1.998 2.611 5.977-1.379 13.081-2.087 18.24-5.659 5.113-3.542 7.158-9.288 8.98-14.961 1.074-3.326-4.175-4.752-5.237-1.441M109.088 33.176c-2.28-4.449-4.832-9.255-3.313-14.361.718-2.416 2.153-4.637 3.454-6.778 1.479-2.427 3.052-4.792 4.563-7.197.631-1 .421-2.467-.424-3.283-.949-.914-2.189-1.7-3.563-1.535-1.022.123-2.011.885-2.928 1.336-1.838.907-3.734 1.687-5.615 2.492-3.7 1.585-7.368 3.29-10.417 5.966-3.37 2.957-5.784 7.453-5.484 12.014.178 2.68 1.073 5.171 1.921 7.695.896 2.662 1.523 5.381 1.693 8.187a31.8 31.8 0 0 1-4.335 18.124c-1.2 2.04.783 4.604 3.07 3.98a51.06 51.06 0 0 1 27.032-.015c2.023.553 3.864-1.34 3.345-3.333-2.105-8.078-5.208-15.853-8.999-23.292-1.584-3.109-6.278-.372-4.694 2.734 3.585 7.034 6.462 14.361 8.449 22.003l3.345-3.333a56.7 56.7 0 0 0-29.92.014l3.07 3.98c3.356-5.699 5.154-12.239 5.14-18.854-.008-3.319-.465-6.703-1.396-9.891-.848-2.907-2.342-5.807-2.302-8.89.058-4.71 4.208-7.953 7.992-9.971 4.147-2.214 8.67-3.633 12.77-5.948q-1.048.134-2.095.275.04.046.079.093l-.424-3.282c-3.2 5.08-7.615 10.447-8.862 16.438-1.305 6.269 1.359 11.913 4.158 17.366 1.587 3.106 6.277.368 4.69-2.734M166.635 109.415c4.458-2.391 9.257-5.063 14.465-3.608 5.024 1.405 9.634 4.998 14.067 7.642 1.001.595 2.483.444 3.295-.423.903-.968 1.682-2.188 1.515-3.568-.123-1.022-.91-1.993-1.381-2.896-.949-1.809-1.772-3.683-2.62-5.539-1.664-3.644-3.451-7.284-6.195-10.26-3.044-3.3-7.571-5.626-12.153-5.25-2.693.22-5.165 1.159-7.684 2.058-2.646.946-5.372 1.643-8.177 1.874-6.368.52-12.704-.801-18.286-3.907-2.019-1.123-4.686.744-3.994 3.059 2.628 8.793 2.856 18.023.612 26.924-.5 1.979 1.312 3.904 3.346 3.333 8.061-2.264 15.807-5.507 23.19-9.439 3.088-1.643.344-6.323-2.744-4.677-6.985 3.72-14.266 6.75-21.896 8.895l3.345 3.333c2.476-9.815 2.288-20.103-.612-29.807q-1.994 1.53-3.994 3.06c5.788 3.22 12.381 4.907 19.018 4.751 3.334-.076 6.716-.588 9.898-1.581 2.886-.9 5.789-2.478 8.87-2.496 4.741-.028 8.079 3.947 10.203 7.703 2.309 4.084 3.831 8.562 6.234 12.592q-.135-1.043-.275-2.087-.032.049-.069.097l3.294-.422c-5.143-3.07-10.619-7.345-16.622-8.483-6.354-1.202-11.95 1.528-17.401 4.449-3.074 1.647-.334 6.323 2.751 4.673"/></g><defs><clipPath id="a"><path fill="#fff" d="M0 0h200v200H0z"/></clipPath></defs></svg>
